img/instagram.svg

<svg width="20" height="20" viewBox="0 0 20 20" fill="none" xmlns="http://www.w3.org/2000/svg">
<g clip-path="url(#clip0)">
<path d="M10 19.1667C8.64583 19.1667 7.35026 18.925 6.11328 18.4416C4.8763 17.9582 3.81185 17.3077 2.91992 16.4901C2.02799 15.6725 1.31836 14.6968 0.791016 13.5629C0.263672 12.429 0 11.2414 0 10C0 8.75872 0.263672 7.57111 0.791016 6.43722C1.31836 5.30332 2.02799 4.32757 2.91992 3.50997C3.81185 2.69237 4.8763 2.04187 6.11328 1.55847C7.35026 1.07507 8.64583 0.833374 10 0.833374C11.3542 0.833374 12.6497 1.07507 13.8867 1.55847C15.1237 2.04187 16.1882 2.69237 17.0801 3.50997C17.972 4.32757 18.6816 5.30332 19.209 6.43722C19.7363 7.57111 20 8.75872 20 10C20 11.2414 19.7363 12.429 19.209 13.5629C18.6816 14.6968 17.972 15.6725 17.0801 16.4901C16.1882 17.3077 15.1237 17.9582 13.8867 18.4416C12.6497 18.925 11.3542 19.1667 10 19.1667ZM15 6.56254C15 6.25221 14.8796 5.98366 14.6387 5.75688C14.3978 5.5301 14.1016 5.41671 13.75 5.41671H6.25C5.91146 5.41671 5.61849 5.5301 5.37109 5.75688C5.1237 5.98366 5 6.25221 5 6.56254V7.70837H7.22656C7.98177 6.94449 8.90625 6.56254 10 6.56254C11.0938 6.56254 12.0182 6.94449 12.7734 7.70837H15V6.56254ZM7.5 10C7.5 10.6326 7.74414 11.1727 8.23242 11.6203C8.7207 12.0679 9.3099 12.2917 10 12.2917C10.6901 12.2917 11.2793 12.0679 11.7676 11.6203C12.2559 11.1727 12.5 10.6326 12.5 10C12.5 9.36744 12.2559 8.82735 11.7676 8.37976C11.2793 7.93217 10.6901 7.70837 10 7.70837C9.3099 7.70837 8.7207 7.93217 8.23242 8.37976C7.74414 8.82735 7.5 9.36744 7.5 10ZM15 8.85421H13.5156C13.6719 9.24809 13.75 9.63003 13.75 10C13.75 10.9549 13.3854 11.7665 12.6562 12.4349C11.9271 13.1033 11.0417 13.4375 10 13.4375C8.95833 13.4375 8.07292 13.1033 7.34375 12.4349C6.61458 11.7665 6.25 10.9549 6.25 10C6.25 9.63003 6.32812 9.24809 6.48438 8.85421H5V13.4375C5 13.7598 5.12044 14.0313 5.36133 14.2522C5.60221 14.473 5.89844 14.5834 6.25 14.5834H13.75C14.1016 14.5834 14.3978 14.473 14.6387 14.2522C14.8796 14.0313 15 13.7598 15 13.4375V8.85421Z" fill="#BDBDBD"/>
</g>
<defs>
<clipPath id="clip0">
<rect width="20" height="18.3333" fill="white" transform="translate(0 0.833374)"/>
</clipPath>
</defs>
</svg>

<svg width="20" height="20" fill="none"
  xmlns="http://www.w3.org/2000/svg">
  <g clip-path="url(#prefix__clip0)">
    <path d="M10 19.167c-1.354 0-2.65-.242-3.887-.725-1.237-.484-2.301-1.134-3.193-1.952A9.17 9.17 0 01.79 13.563 8.352 8.352 0 010 10c0-1.241.264-2.429.791-3.563A9.17 9.17 0 012.92 3.51c.892-.818 1.956-1.468 3.193-1.952A10.584 10.584 0 0110 .833c1.354 0 2.65.242 3.887.725 1.237.484 2.301 1.134 3.193 1.952a9.172 9.172 0 012.129 2.927A8.352 8.352 0 0120 10a8.353 8.353 0 01-.791 3.563 9.172 9.172 0 01-2.129 2.927c-.892.818-1.956 1.468-3.193 1.952a10.584 10.584 0 01-3.887.725zm5-12.604c0-.31-.12-.58-.361-.806a1.248 1.248 0 00-.889-.34h-7.5c-.339 0-.632.113-.879.34A1.058 1.058 0 005 6.563v1.145h2.227c.755-.764 1.68-1.145 2.773-1.145 1.094 0 2.018.381 2.773 1.145H15V6.563zM7.5 10c0 .633.244 1.173.732 1.62.489.448 1.078.672 1.768.672s1.28-.224 1.768-.672c.488-.447.732-.987.732-1.62 0-.633-.244-1.173-.732-1.62-.489-.448-1.078-.672-1.768-.672s-1.28.224-1.768.672c-.488.447-.732.987-.732 1.62zM15 8.854h-1.484c.156.394.234.776.234 1.146 0 .955-.365 1.767-1.094 2.435-.729.668-1.614 1.002-2.656 1.002s-1.927-.334-2.656-1.002c-.73-.668-1.094-1.48-1.094-2.435 0-.37.078-.752.234-1.146H5v4.584c0 .322.12.593.361.814.241.221.537.331.889.331h7.5c.352 0 .648-.11.889-.33.24-.222.361-.493.361-.816V8.854z" fill="#BDBDBD"/>
  </g>
  <defs>
    <clipPath id="prefix__clip0">
      <path fill="#fff" transform="translate(0 .833)" d="M0 0h20v18.333H0z"/>
    </clipPath>
  </defs>
</svg>
